logos/panda.svg

<svg preserveAspectRatio="xMidYMid" viewBox="0 0 256 203" xmlns="http://www.w3.org/2000/svg">
  <path fill="#090B08" d="M256 39.788c0-20.403-14.696-37.007-35.105-37.007-12.06 0-20.814 4.191-26.34 11.08-1.033.786-1.938 1.69-2.838 2.607C173.904 6.078 152.134.07 128.115 0 103.177.068 81.12 5.888 63.324 16.159 57.661 7.848 47.783 2.781 34.398 2.781 13.989 2.781 0 19.385 0 39.788 0 55.435 7.682 67.87 19.476 73.492c-1.815 7.387-2.865 15.139-2.865 23.29 0 59.075 48.976 105.969 111.498 105.969h.059c60.436 0 111.498-48.816 111.498-105.916 0-8.333-1.227-16.312-3.322-23.939C247.966 66.997 256 54.859 256 39.788"/>
  <path fill="#FFF" d="M226.806 97.41c0 49.378-45.422 91.504-98.875 91.504-53.454 0-98.883-40.032-98.883-89.411 0-49.385 45.429-89.411 98.883-89.411 53.453 0 98.875 37.933 98.875 87.318"/>
  <path fill="#090B08" d="M107.819 78.44c-2.266 17.232-13.732 29.934-25.594 28.368-11.863-1.565-19.643-16.803-17.371-34.035 2.272-17.232 13.731-29.933 25.6-28.368 11.863 1.559 19.643 16.796 17.365 34.035"/>
  <path fill="#FFF" d="M98.38 62.067c0 5.138-4.167 9.306-9.306 9.306-5.139 0-9.306-4.168-9.306-9.306 0-5.139 4.167-9.307 9.306-9.307 5.139 0 9.306 4.168 9.306 9.307"/>
  <path fill="#090B08" d="M147.911 78.44c2.272 17.232 13.731 29.934 25.594 28.368 11.869-1.565 19.643-16.803 17.371-34.035-2.272-17.232-13.732-29.933-25.595-28.368-11.868 1.559-19.642 16.796-17.37 34.035"/>
  <path fill="#FFF" d="M157.356 62.067a9.304 9.304 0 0 0 9.306 9.306c5.139 0 9.3-4.168 9.3-9.306 0-5.139-4.161-9.307-9.3-9.307a9.304 9.304 0 0 0-9.306 9.307"/>
  <path fill="#090B08" d="M134.853 138.443v-10.208c0-.554-.053-1.078-.167-1.556 7.579-1.457 13.079-5.528 13.079-10.379 0-4.756-1.057-8.805-8.401-10.344-2.035-.422-8.415-.654-10.7-.654-2.186 0-8.474.212-10.429.601-7.491 1.487-8.679 5.582-8.679 10.397 0 6.007 8.385 10.871 18.788 10.972-.04.316-.096.621-.096.963v10.683c-15.285-.189-29.511-10.613-29.511-3.649 0 7.034 15.138 13.699 30.581 13.699 15.442 0 27.959-5.7 27.959-12.735 0-6.069-9.814.337-22.424 2.21"/>
  <path fill="#E7EBE0" d="M136.946 114.206c0 1.962-4.861 3.56-8.282 3.56-3.421 0-8.289-1.598-8.289-3.56 0-1.565 2.476-2.893 4.907-3.375.634-.126 2.675-.192 3.382-.192.74 0 2.807.08 3.467.212 2.378.495 4.815 1.809 4.815 3.355"/>
  <path fill="#E1DEDC" d="M127.931 10.092c-53.454 0-98.883 40.026-98.883 89.411 0 49.379 45.429 89.411 98.883 89.411-2.134 0-4.254-.086-6.354-.211 2.787-.172 5.541-.456 8.269-.846-46.756-6.578-84.047-43.619-84.047-88.354 0-44.86 37.496-81.98 84.437-88.4a113.055 113.055 0 0 0-8.514-.812c2.061-.119 4.128-.199 6.209-.199"/>
  <path fill="#F1EFEE" d="M127.931 10.092c2.86 0 5.693.133 8.507.344-2.081.165-4.155.383-6.202.667 46.743 6.262 84.008 41.578 84.008 86.307 0 44.847-37.476 83.691-84.398 90.447 2.094.291 4.207.522 6.334.694-2.728.224-5.475.363-8.249.363 53.453 0 98.875-42.126 98.875-91.504 0-49.385-45.422-87.318-98.875-87.318"/>
  <path fill="#D3D0CD" d="M129.846 187.857c-2.728.39-5.482.674-8.269.846 2.1.125 4.22.211 6.354.211 2.774 0 5.521-.139 8.249-.363-2.127-.172-4.24-.403-6.334-.694m-1.915-177.765c-2.081 0-4.148.08-6.209.199 2.867.165 5.707.436 8.514.812 2.047-.284 4.121-.502 6.202-.667a113.645 113.645 0 0 0-8.507-.344"/>
  <path fill="#FFF" d="M229.008 54.533c4.09-3.612 6.722-8.837 6.722-14.725 0-10.885-8.824-19.716-19.716-19.716-4.74 0-9.031 1.742-12.431 4.529 10.633 8.313 19.267 18.423 25.425 29.912"/>
  <path fill="#FFF" d="M26.049 55.36c5.817-11.823 14.191-22.108 24.688-30.52-3.439-2.919-7.835-4.748-12.699-4.748-10.885 0-19.716 8.831-19.716 19.716 0 6.356 3.059 11.947 7.727 15.552"/>
</svg>

<?xml version="1.0" encoding="UTF-8" standalone="no"?>
<svg width="256px" height="203px" viewBox="0 0 256 203" version="1.1" xmlns="http://www.w3.org/2000/svg" xmlns:xlink="http://www.w3.org/1999/xlink" preserveAspectRatio="xMidYMid">
	<g>
		<path d="M256,39.788 C256,19.385 241.304,2.781 220.895,2.781 C208.835,2.781 200.081,6.972 194.555,13.861 C193.522,14.647 192.617,15.551 191.717,16.468 C173.904,6.078 152.134,0.07 128.115,0 C103.177,0.068 81.12,5.888 63.324,16.159 C57.661,7.848 47.783,2.781 34.398,2.781 C13.989,2.781 0,19.385 0,39.788 C0,55.435 7.682,67.87 19.476,73.492 C17.661,80.879 16.611,88.631 16.611,96.782 C16.611,155.857 65.587,202.751 128.109,202.751 L128.168,202.751 C188.604,202.751 239.666,153.935 239.666,96.835 C239.666,88.502 238.439,80.523 236.344,72.896 C247.966,66.997 256,54.859 256,39.788" fill="#090B08"></path>
		<path d="M226.806,97.41 C226.806,146.788 181.384,188.914 127.931,188.914 C74.477,188.914 29.048,148.882 29.048,99.503 C29.048,50.118 74.477,10.092 127.931,10.092 C181.384,10.092 226.806,48.025 226.806,97.41" fill="#FFFFFF"></path>
		<path d="M107.819,78.44 C105.553,95.672 94.087,108.374 82.225,106.808 C70.362,105.243 62.582,90.005 64.854,72.773 C67.126,55.541 78.585,42.84 90.454,44.405 C102.317,45.964 110.097,61.201 107.819,78.44" fill="#090B08"></path>
		<path d="M98.38,62.067 C98.38,67.205 94.213,71.373 89.074,71.373 C83.935,71.373 79.768,67.205 79.768,62.067 C79.768,56.928 83.935,52.76 89.074,52.76 C94.213,52.76 98.38,56.928 98.38,62.067" fill="#FFFFFF"></path>
		<path d="M147.911,78.44 C150.183,95.672 161.642,108.374 173.505,106.808 C185.374,105.243 193.148,90.005 190.876,72.773 C188.604,55.541 177.144,42.84 165.281,44.405 C153.413,45.964 145.639,61.201 147.911,78.44" fill="#090B08"></path>
		<path d="M157.356,62.067 C157.356,67.205 161.517,71.373 166.662,71.373 C171.801,71.373 175.962,67.205 175.962,62.067 C175.962,56.928 171.801,52.76 166.662,52.76 C161.517,52.76 157.356,56.928 157.356,62.067" fill="#FFFFFF"></path>
		<path d="M134.853,138.443 L134.853,128.235 C134.853,127.681 134.8,127.157 134.686,126.679 C142.265,125.222 147.765,121.151 147.765,116.3 C147.765,111.544 146.708,107.495 139.364,105.956 C137.329,105.534 130.949,105.302 128.664,105.302 C126.478,105.302 120.19,105.514 118.235,105.903 C110.744,107.39 109.556,111.485 109.556,116.3 C109.556,122.307 117.941,127.171 128.344,127.272 C128.304,127.588 128.248,127.893 128.248,128.235 L128.248,138.918 C112.963,138.729 98.737,128.305 98.737,135.269 C98.737,142.303 113.875,148.968 129.318,148.968 C144.76,148.968 157.277,143.268 157.277,136.233 C157.277,130.164 147.463,136.57 134.853,138.443" fill="#090B08"></path>
		<path d="M136.946,114.206 C136.946,116.168 132.085,117.766 128.664,117.766 C125.243,117.766 120.375,116.168 120.375,114.206 C120.375,112.641 122.851,111.313 125.282,110.831 C125.916,110.705 127.957,110.639 128.664,110.639 C129.404,110.639 131.471,110.719 132.131,110.851 C134.509,111.346 136.946,112.66 136.946,114.206" fill="#E7EBE0"></path>
		<path d="M127.931,10.092 C74.477,10.092 29.048,50.118 29.048,99.503 C29.048,148.882 74.477,188.914 127.931,188.914 C125.797,188.914 123.677,188.828 121.577,188.703 C124.364,188.531 127.118,188.247 129.846,187.857 C83.09,181.279 45.799,144.238 45.799,99.503 C45.799,54.643 83.295,17.523 130.236,11.103 C127.429,10.727 124.589,10.456 121.722,10.291 C123.783,10.172 125.85,10.092 127.931,10.092" fill="#E1DEDC"></path>
		<path d="M127.931,10.092 C130.791,10.092 133.624,10.225 136.438,10.436 C134.357,10.601 132.283,10.819 130.236,11.103 C176.979,17.365 214.244,52.681 214.244,97.41 C214.244,142.257 176.768,181.101 129.846,187.857 C131.94,188.148 134.053,188.379 136.18,188.551 C133.452,188.775 130.705,188.914 127.931,188.914 C181.384,188.914 226.806,146.788 226.806,97.41 C226.806,48.025 181.384,10.092 127.931,10.092" fill="#F1EFEE"></path>
		<path d="M129.846,187.857 C127.118,188.247 124.364,188.531 121.577,188.703 C123.677,188.828 125.797,188.914 127.931,188.914 C130.705,188.914 133.452,188.775 136.18,188.551 C134.053,188.379 131.94,188.148 129.846,187.857 M127.931,10.092 L127.931,10.092 C125.85,10.092 123.783,10.172 121.722,10.291 C124.589,10.456 127.429,10.727 130.236,11.103 C132.283,10.819 134.357,10.601 136.438,10.436 C133.624,10.225 130.791,10.092 127.931,10.092" fill="#D3D0CD"></path>
		<path d="M229.008,54.533 C233.098,50.921 235.73,45.696 235.73,39.808 C235.73,28.923 226.906,20.092 216.014,20.092 C211.274,20.092 206.983,21.834 203.583,24.621 C214.216,32.934 222.85,43.044 229.008,54.533" fill="#FFFFFF"></path>
		<path d="M26.049,55.36 C31.866,43.537 40.24,33.252 50.737,24.84 C47.298,21.921 42.902,20.092 38.038,20.092 C27.153,20.092 18.322,28.923 18.322,39.808 C18.322,46.164 21.381,51.755 26.049,55.36" fill="#FFFFFF"></path>
	</g>
</svg>
